X:132
T:Twins,The. (p)1657.PLFD.133
M:6/4
L:1/4
Q:3/4=70
S:Playford, Dancing Master,3rd Ed.,1657
O:England
H:1657.
Z:Chris Partington.
K:Bb
c2=BcG2|ec2g2f|ed2c2G|=Bc2g3:|
|:b2abf2|gd2e2f|gf2BA2|B3f3|
g>agf2d|e>fed2=B|c>dcG=B2|c3g3:|
